X:11
T:Major O'Flacherty. ASH.11
M:6/8
L:1/8
Q:3/8=120
S:Harrison & Wall MS,Ashover,Derbyshire,1762-75
R:.Jig
O:England
A:Derbyshire
Z:vmp.Chris Partington, 2003
K:C
G/2F/2 | EGc ~c3 | dBG F2E | DFA dfe | dec BAB |!
EGc ~c3 | dBG ~F2E | DFA dfd | BAB c2 :|!
|:e/2f/2 | gec cBc | dBG ~F2E | DFA dfe | dec ~B2e/2f/2 |!
gec ~c3 | dBG F2E | DFA dfd | BAB c2 :|

